X: 323
T: Rippling Water Jig
M:6/8
R:jig
L:1/8
Z:Alf Warnock - alf0@rogers.com
K:E
g3/4a/4|:"E"b2e g2e|gbe g2e|"B7"Bdf agf|"E"ega b2g/2a/2|
b2e g2e|gbe g2e|"B7"Bdf agf|[1 "E"eee e3:|[2 "E"eee e2 (3e/f/g/|
"A"agb agf|edf ecA|"E7"=dBG EGB|"A"fec A2 (3e/f/g/|
"A"agb agf|edf ecA|"E7"gfe =dcB|"A"A6:|
